public/jelastic.svg

<svg width="239" height="72" viewBox="0 0 239 72" fill="none" xmlns="http://www.w3.org/2000/svg">
<mask id="mask0_9_105513" style="mask-type:luminance" maskUnits="userSpaceOnUse" x="27" y="13" width="185" height="44">
<path d="M211.053 13.3828H27.4336V56.8459H211.053V13.3828Z" fill="white"/>
</mask>
<g mask="url(#mask0_9_105513)">
<mask id="mask1_9_105513" style="mask-type:luminance" maskUnits="userSpaceOnUse" x="27" y="13" width="185" height="44">
<path d="M211.053 13.3828H27.4336V56.8459H211.053V13.3828Z" fill="white"/>
</mask>
<g mask="url(#mask1_9_105513)">
<mask id="mask2_9_105513" style="mask-type:luminance" maskUnits="userSpaceOnUse" x="27" y="13" width="185" height="44">
<path d="M211.053 13.3828H27.4336V56.8459H211.053V13.3828Z" fill="white"/>
</mask>
<g mask="url(#mask2_9_105513)">
<path d="M73.6354 39.0579H79.655V42.6874C79.6282 43.1298 79.6917 43.5731 79.8416 43.9906C79.9914 44.408 80.2247 44.7912 80.5273 45.117C81.3003 45.6945 82.26 45.9703 83.2242 45.8924C83.7145 45.9336 84.208 45.8702 84.6715 45.7066C85.1351 45.5429 85.558 45.2828 85.9118 44.9435C86.3768 44.3684 86.6084 43.1287 86.6084 41.229V23.5982C86.6032 23.185 86.6857 22.7753 86.8505 22.3958C87.0154 22.0164 87.259 21.6757 87.5653 21.3958C87.8654 21.1016 88.2215 20.8695 88.6128 20.7131C89.0041 20.5567 89.4229 20.479 89.8447 20.4847H92.8122V41.4773C92.8494 42.865 92.76 44.253 92.5452 45.6246C92.3204 46.4661 91.9364 47.2574 91.4135 47.9563C90.544 48.9724 89.4219 49.745 88.1586 50.1976C86.5762 50.6708 84.9308 50.904 83.2782 50.889C80.5813 50.889 77.4538 50.3352 75.5279 48.3044C74.8495 47.6294 74.3432 46.8035 74.0511 45.8952C73.7117 44.4122 73.5652 42.8921 73.6149 41.3721V39.0523L73.6354 39.0579Z" fill="#5E6981"/>
<path d="M111.461 43.3659H115.814C115.311 45.5887 114.014 47.5558 112.164 48.9044C110.181 50.2882 107.794 50.9872 105.371 50.8936C103.916 50.9705 102.463 50.7198 101.12 50.1603C99.7764 49.6008 98.578 48.747 97.6141 47.6629C95.7598 45.5056 94.8242 42.6247 94.8242 38.7607C94.8242 35.0739 95.7266 32.1955 97.5313 30.1253C99.3361 28.0551 101.922 26.9782 105.288 26.8945C108.76 26.8945 111.461 27.9303 113.392 30.0017C115.322 32.0731 116.252 35.0355 116.182 38.889C116.189 39.4072 116.158 39.9253 116.089 40.4389H101.023C100.958 41.8857 101.42 43.3074 102.325 44.4431C102.743 44.9227 103.267 45.2987 103.857 45.5411C104.447 45.7834 105.086 45.8854 105.722 45.8389C108.419 45.8389 108.255 44.9933 109.859 43.7536C110.334 43.4366 110.902 43.2844 111.473 43.3207L111.461 43.3659ZM101.017 36.597H109.9C109.898 35.3453 109.469 34.1313 108.682 33.153C108.263 32.738 107.76 32.4163 107.205 32.2094C106.651 32.0025 106.059 31.9151 105.468 31.953C104.89 31.9303 104.314 32.0251 103.774 32.2314C103.235 32.4378 102.744 32.7514 102.331 33.153C101.465 34.0913 100.999 35.3252 101.029 36.597H101.017Z" fill="#5E6981"/>
<path d="M118.133 20.4887H121.276C121.663 20.4822 122.046 20.5513 122.406 20.6921C122.765 20.8329 123.094 21.0426 123.371 21.3092C123.653 21.5671 123.877 21.8816 124.027 22.2316C124.178 22.5817 124.251 22.9596 124.244 23.3401V50.893H118.133V20.4887Z" fill="#5E6981"/>
<path d="M140.188 38.8615C139.09 39.3579 137.94 39.7325 136.759 39.9785L134.755 40.4114C133.096 40.8729 131.872 41.5356 131.872 43.4344C131.854 43.8152 131.914 44.1959 132.049 44.5527C132.185 44.9095 132.393 45.2349 132.66 45.5086C133.301 46.0129 134.109 46.2593 134.925 46.199C136.201 46.3085 137.47 45.9105 138.451 45.0921C139.433 44.2738 140.047 43.1022 140.158 41.8348C140.181 41.5676 140.181 41.2989 140.158 41.0317V38.8624L140.188 38.8615ZM141.583 49.4676C138.083 51.2889 131.919 51.5621 128.564 49.1639C126.998 48.047 126.212 46.1889 126.207 43.5895C126.207 41.1612 126.92 39.4381 128.346 38.4202C131.694 35.9658 140.063 36.4375 140.063 33.7504C140.063 31.9292 137.646 31.6717 136.23 31.6717C135.488 31.66 134.749 31.7804 134.049 32.0271C133.738 32.141 133.454 32.3181 133.215 32.5473C132.976 32.7765 132.789 33.0528 132.664 33.3582H126.805C126.904 32.4869 127.175 31.6435 127.603 30.8764C128.031 30.1093 128.607 29.4336 129.298 28.8877C130.864 27.5609 133.098 26.8978 136 26.8984C139.254 26.8984 141.694 27.4477 143.321 28.5462C144.134 29.0672 144.796 29.7893 145.242 30.6415C145.688 31.4936 145.903 32.4465 145.866 33.4062V41.2523C145.97 43.1373 145.531 45.0126 144.6 46.6587C143.869 47.8436 142.831 48.8118 141.594 49.4621L141.583 49.4676Z" fill="#5E6981"/>
<path d="M147.82 42.8384H153.742C153.737 43.3408 153.852 43.8373 154.079 44.2867C154.305 44.7362 154.636 45.1257 155.044 45.423C156.094 46.0453 157.305 46.3468 158.526 46.2897C159.462 46.3157 160.39 46.1068 161.223 45.6824C161.533 45.5332 161.795 45.3013 161.98 45.0129C162.165 44.7244 162.266 44.3905 162.271 44.0485C162.271 43.0067 161.05 42.2297 158.608 41.7177C157.811 41.6001 157.023 41.4252 156.251 41.1943C153.167 40.4497 151.104 39.5605 150.062 38.5266C149.483 38.0049 149.026 37.363 148.725 36.6463C148.424 35.9297 148.285 35.1561 148.319 34.3802C148.298 33.3421 148.514 32.3127 148.951 31.3694C149.389 30.4261 150.035 29.5934 150.844 28.9341C152.823 27.537 155.218 26.8386 157.644 26.9504C160.209 26.8137 162.747 27.5122 164.875 28.9396C165.7 29.633 166.367 30.4927 166.832 31.4616C167.297 32.4305 167.549 33.4863 167.572 34.5593H163.831C161.117 34.5593 161.72 31.5943 157.739 31.5943C156.841 31.5404 155.944 31.7185 155.135 32.1113C154.879 32.282 154.673 32.5161 154.536 32.7903C154.399 33.0645 154.336 33.3694 154.354 33.675C154.354 35.8183 163.933 36.5873 166.723 38.9458C167.285 39.4798 167.726 40.1262 168.017 40.8423C168.309 41.5585 168.443 42.328 168.411 43.0997C168.468 44.2325 168.243 45.3616 167.756 46.3879C167.27 47.4142 166.537 48.306 165.622 48.9852C163.886 50.2553 161.282 50.8901 157.81 50.8895C154.495 50.8895 152.029 50.2264 150.411 48.9002C149.546 48.2079 148.861 47.32 148.412 46.3108C147.964 45.3016 147.766 44.2005 147.834 43.0997L147.82 42.8384Z" fill="#5E6981"/>
<path d="M179.959 50.7053C176.053 50.9443 170.375 51.7575 170.375 46.3843V20.9609H173.517C173.893 20.9634 174.264 21.0413 174.609 21.1901C174.953 21.3389 175.264 21.5555 175.521 21.8268C175.802 22.0949 176.024 22.4173 176.174 22.7741C176.324 23.1308 176.399 23.5143 176.394 23.9009V27.7779H179.959V28.9917C179.974 29.3867 179.903 29.7802 179.753 30.1462C179.602 30.5122 179.375 30.8424 179.087 31.1148C178.812 31.3839 178.485 31.5959 178.127 31.7386C177.768 31.8812 177.385 31.9515 176.998 31.9455H176.387V44.7181C176.387 45.7003 176.966 46.184 178.124 46.184H179.952V50.7071L179.959 50.7053Z" fill="#5E6981"/>
<path d="M181.965 27.8986H185.108C185.498 27.8947 185.885 27.9694 186.245 28.1182C186.605 28.267 186.931 28.4869 187.203 28.7644C187.481 29.0304 187.702 29.3495 187.852 29.7025C188.002 30.0555 188.078 30.4351 188.077 30.8182V50.8445H181.966L181.965 27.8986Z" fill="#5E6981"/>
<path d="M206.698 43.334H211.05C210.543 45.5548 209.244 47.5188 207.393 48.8641C203.32 51.8734 196.278 51.59 192.848 47.6559C190.989 45.5851 190.059 42.6184 190.059 38.7556C190.059 35.0688 190.958 32.1901 192.756 30.1193C196.554 25.7624 204.742 25.8555 208.607 30.0269C209.664 31.3231 210.434 32.8264 210.866 34.4384H204.775C204.555 33.9648 204.261 33.5287 203.904 33.146C203.481 32.7233 202.972 32.3961 202.41 32.1867C201.848 31.9772 201.248 31.8904 200.649 31.9322C200.072 31.9115 199.496 32.0078 198.958 32.2156C198.419 32.4234 197.929 32.7381 197.518 33.1405C196.481 34.2857 195.963 36.1848 195.963 38.8377C195.963 41.4907 196.486 43.366 197.532 44.4639C197.951 44.9405 198.475 45.3137 199.065 45.554C199.654 45.7944 200.292 45.8952 200.927 45.8485C201.578 45.8944 202.231 45.7928 202.837 45.5513C203.442 45.3099 203.985 44.9348 204.423 44.4546C204.623 44.1869 204.857 43.9459 205.119 43.7374C205.576 43.4165 206.13 43.2635 206.688 43.3045L206.698 43.334Z" fill="#5E6981"/>
<path d="M188.348 26.7713C187.418 26.3485 186.445 26.0278 185.445 25.815C183.662 25.4337 181.273 25.2141 181.273 22.8612C181.273 19.6701 185.551 20.0836 187.132 21.6879C187.54 22.1187 187.856 22.627 188.061 23.1823C188.266 23.7376 188.355 24.3283 188.323 24.9187V26.7649L188.348 26.7713Z" fill="#0987F7"/>
<path fill-rule="evenodd" clip-rule="evenodd" d="M37.1484 40.673L46.8507 35.1114V23.9883L37.1484 29.5498V40.673Z" fill="#0064C8"/>
<path fill-rule="evenodd" clip-rule="evenodd" d="M46.8516 35.1114V23.9883L56.5538 29.5498V40.673L46.8516 35.1114Z" fill="#0064C8"/>
</g>
<mask id="mask3_9_105513" style="mask-type:luminance" maskUnits="userSpaceOnUse" x="27" y="13" width="40" height="44">
<path d="M43.2429 14.9366L37.1386 18.4304L56.5544 29.5341V40.6784L46.8456 46.2391L37.1377 40.6775V29.5332L27.4336 35.1151V42.1018C27.4336 46.3267 27.5108 46.2742 31.0325 48.2634L43.2429 55.2926C46.7638 57.3086 46.7638 57.4056 50.4399 55.2926L62.6605 48.2652C66.1804 46.2501 66.252 46.2899 66.252 42.0806V28.1088C66.252 26.7408 66.4733 25.481 65.7638 24.2726C65.0347 23.0726 63.8109 22.611 62.64 21.9261L50.4389 14.932C48.6776 13.9166 47.8044 13.3867 46.894 13.3867C46.0031 13.3867 45.0759 13.8889 43.2402 14.9384" fill="white"/>
</mask>
<g mask="url(#mask3_9_105513)">
<path d="M66.478 13.3828H27.4336V57.4034H66.478V13.3828Z" fill="url(#paint0_linear_9_105513)"/>
</g>
<mask id="mask4_9_105513" style="mask-type:luminance" maskUnits="userSpaceOnUse" x="27" y="13" width="185" height="44">
<path d="M211.053 13.3828H27.4336V56.8459H211.053V13.3828Z" fill="white"/>
</mask>
<g mask="url(#mask4_9_105513)">
<path fill-rule="evenodd" clip-rule="evenodd" d="M27.4336 35.1109V42.0995C27.4336 46.3235 27.5108 46.2727 31.0325 48.261L43.2429 55.2885C46.7638 57.3035 46.7638 57.4014 50.4399 55.2885L46.8456 46.2423L37.1377 40.6641V29.5234L27.4336 35.1109Z" fill="#0056B3"/>
<g opacity="0.3">
<mask id="mask5_9_105513" style="mask-type:luminance" maskUnits="userSpaceOnUse" x="27" y="13" width="40" height="44">
<path d="M66.2827 13.3867H27.4336V56.8443H66.2827V13.3867Z" fill="white"/>
</mask>
<g mask="url(#mask5_9_105513)">
<path fill-rule="evenodd" clip-rule="evenodd" d="M65.762 24.2708C65.0329 23.0708 63.809 22.6092 62.6382 21.9243L50.4371 14.9282C46.9228 12.9132 46.9163 12.8227 43.2402 14.9282L37.1359 18.4286L56.5516 29.5259V40.6739L46.8438 46.2353L37.1405 40.6739V29.5259L27.4336 35.1169V42.1129C27.4336 46.3231 27.5052 46.2852 31.0251 48.2975L43.2429 55.2954C46.7628 57.3105 46.7628 57.4074 50.4399 55.2954L62.654 48.2994C66.1739 46.288 66.2455 46.323 66.2455 42.1147V28.1098C66.252 26.7409 66.479 25.4873 65.7647 24.2735" fill="#0088FB"/>
</g>
</g>
<path fill-rule="evenodd" clip-rule="evenodd" d="M37.1445 40.673L46.8468 35.1114V23.9883L37.1445 29.5498V40.673Z" fill="#0064C8"/>
<path fill-rule="evenodd" clip-rule="evenodd" d="M46.8438 35.1114V23.9883L56.5516 29.5498V40.673L46.8438 35.1114Z" fill="#0064C8"/>
</g>
</g>
</g>
<defs>
<linearGradient id="paint0_linear_9_105513" x1="-148.774" y1="-92.1786" x2="-148.11" y2="-92.1786" gradientUnits="userSpaceOnUse">
<stop stop-color="#0056B3"/>
<stop offset="0.25" stop-color="#0056B3"/>
<stop offset="0.7" stop-color="#0088FB"/>
<stop offset="1" stop-color="#00ACFF"/>
</linearGradient>
</defs>
</svg>

<svg xmlns="http://www.w3.org/2000/svg" width="239" height="72" fill="none" viewBox="0 0 239 72"><mask id="a" width="185" height="44" x="27" y="13" maskUnits="userSpaceOnUse" style="mask-type:luminance"><path fill="#fff" d="M211.053 13.383H27.433v43.463h183.62z"/></mask><g mask="url(#a)"><mask id="b" width="185" height="44" x="27" y="13" maskUnits="userSpaceOnUse" style="mask-type:luminance"><path fill="#fff" d="M211.053 13.383H27.433v43.463h183.62z"/></mask><g mask="url(#b)"><mask id="c" width="185" height="44" x="27" y="13" maskUnits="userSpaceOnUse" style="mask-type:luminance"><path fill="#fff" d="M211.053 13.383H27.433v43.463h183.62z"/></mask><g mask="url(#c)"><path fill="#5e6981" d="M73.635 39.058h6.02v3.63a3.27 3.27 0 0 0 .872 2.429 3.97 3.97 0 0 0 2.697.775 3.48 3.48 0 0 0 2.688-.949q.697-.863.696-3.714v-17.63a2.93 2.93 0 0 1 .957-2.203 3.19 3.19 0 0 1 2.28-.911h2.967v20.992a23 23 0 0 1-.267 4.148 6.8 6.8 0 0 1-1.132 2.331 7.7 7.7 0 0 1-3.254 2.242 16.5 16.5 0 0 1-4.88.691c-2.698 0-5.825-.554-7.751-2.585a6 6 0 0 1-1.477-2.409 17.7 17.7 0 0 1-.436-4.523v-2.32zM111.461 43.366h4.353a9.43 9.43 0 0 1-3.65 5.538 11.12 11.12 0 0 1-6.793 1.99 9.7 9.7 0 0 1-4.251-.734 9.66 9.66 0 0 1-3.506-2.497c-1.854-2.157-2.79-5.038-2.79-8.902q0-5.53 2.707-8.636 2.708-3.105 7.757-3.23 5.208 0 8.104 3.107t2.79 8.887q.01.778-.093 1.55h-15.066a6 6 0 0 0 1.302 4.004 4.1 4.1 0 0 0 3.397 1.396c2.697 0 2.533-.846 4.137-2.085a2.6 2.6 0 0 1 1.614-.433zm-10.444-6.769h8.883a5.5 5.5 0 0 0-1.218-3.444 4.197 4.197 0 0 0-3.214-1.2 4.25 4.25 0 0 0-3.137 1.2 4.9 4.9 0 0 0-1.302 3.444zM118.133 20.489h3.143a2.96 2.96 0 0 1 2.095.82 2.68 2.68 0 0 1 .873 2.031v27.553h-6.111zM140.188 38.862a16.5 16.5 0 0 1-3.429 1.116l-2.004.433c-1.659.462-2.883 1.125-2.883 3.023-.018.381.042.762.177 1.119.136.357.344.682.611.956.641.504 1.449.75 2.265.69a4.86 4.86 0 0 0 3.526-1.107 4.78 4.78 0 0 0 1.707-3.257 4.7 4.7 0 0 0 0-.803v-2.17zm1.395 10.606c-3.5 1.82-9.664 2.094-13.019-.304q-2.35-1.675-2.357-5.574 0-3.643 2.139-5.17c3.348-2.454 11.717-1.983 11.717-4.67 0-1.82-2.417-2.078-3.833-2.078a6.3 6.3 0 0 0-2.181.355 2.362 2.362 0 0 0-1.385 1.331h-5.859a6.6 6.6 0 0 1 .798-2.482 6.7 6.7 0 0 1 1.695-1.988q2.349-1.99 6.702-1.99 4.88 0 7.321 1.648a5.54 5.54 0 0 1 1.921 2.096c.446.852.661 1.805.624 2.764v7.846a9.88 9.88 0 0 1-1.266 5.407 7.8 7.8 0 0 1-3.006 2.803zM147.82 42.838h5.922a3.167 3.167 0 0 0 1.302 2.585 6.26 6.26 0 0 0 3.482.867 5.6 5.6 0 0 0 2.697-.608c.31-.149.572-.38.757-.67.185-.288.286-.621.291-.964q0-1.562-3.663-2.33a17 17 0 0 1-2.357-.524q-4.626-1.117-6.189-2.667a5.3 5.3 0 0 1-1.337-1.88 5.26 5.26 0 0 1-.406-2.267 6.8 6.8 0 0 1 .632-3.01 6.9 6.9 0 0 1 1.893-2.436 10.92 10.92 0 0 1 6.8-1.984 11.85 11.85 0 0 1 7.231 1.99 7.6 7.6 0 0 1 1.957 2.522c.465.969.717 2.024.74 3.097h-3.741c-2.714 0-2.111-2.965-6.092-2.965a5.24 5.24 0 0 0-2.604.517 1.76 1.76 0 0 0-.781 1.564c0 2.143 9.579 2.912 12.369 5.27a5.4 5.4 0 0 1 1.294 1.897c.292.717.426 1.486.394 2.258a6.86 6.86 0 0 1-.655 3.288 6.9 6.9 0 0 1-2.134 2.597q-2.604 1.905-7.812 1.904-4.972 0-7.399-1.989a6.9 6.9 0 0 1-1.999-2.59 6.9 6.9 0 0 1-.578-3.21zM179.959 50.705c-3.906.24-9.584 1.053-9.584-4.32V20.96h3.142c.376.002.747.08 1.092.23.344.148.655.364.912.636a2.82 2.82 0 0 1 .873 2.074v3.877h3.565v1.214a2.77 2.77 0 0 1-.872 2.123 2.92 2.92 0 0 1-2.089.83h-.611v12.773c0 .982.579 1.466 1.737 1.466h1.828v4.523zM181.965 27.899h3.143a2.9 2.9 0 0 1 2.095.865 2.83 2.83 0 0 1 .874 2.054v20.026h-6.111zM206.698 43.334h4.352a9.44 9.44 0 0 1-3.657 5.53c-4.073 3.01-11.115 2.726-14.545-1.208q-2.789-3.106-2.789-8.9 0-5.53 2.697-8.637c3.798-4.357 11.986-4.264 15.851-.092a11.8 11.8 0 0 1 2.259 4.411h-6.091a5 5 0 0 0-.871-1.292 4.202 4.202 0 0 0-3.255-1.214 4.27 4.27 0 0 0-3.131 1.209q-1.555 1.718-1.555 5.697t1.569 5.626a4.129 4.129 0 0 0 3.395 1.385 4.3 4.3 0 0 0 1.91-.298 4.3 4.3 0 0 0 1.586-1.096 4 4 0 0 1 .696-.718 2.42 2.42 0 0 1 1.569-.433z"/><path fill="#0987f7" d="M188.348 26.771a14 14 0 0 0-2.903-.956c-1.783-.381-4.172-.6-4.172-2.954 0-3.19 4.278-2.777 5.859-1.173.408.43.724.939.929 1.494.205.556.294 1.146.262 1.737v1.846z"/><path fill="#0064c8" fill-rule="evenodd" d="m37.148 40.673 9.703-5.562V23.988l-9.703 5.562zM46.852 35.111V23.988l9.702 5.562v11.123z" clip-rule="evenodd"/></g><mask id="d" width="40" height="44" x="27" y="13" maskUnits="userSpaceOnUse" style="mask-type:luminance"><path fill="#fff" d="m43.243 14.937-6.104 3.493 19.415 11.104v11.144l-9.708 5.561-9.708-5.561V29.533l-9.704 5.582v6.987c0 4.225.077 4.172 3.598 6.161l12.21 7.03c3.522 2.016 3.522 2.113 7.198 0l12.22-7.028c3.52-2.015 3.592-1.975 3.592-6.184V28.109c0-1.368.221-2.628-.488-3.836-.73-1.2-1.953-1.662-3.124-2.347l-12.201-6.994c-1.761-1.015-2.635-1.545-3.545-1.545-.89 0-1.818.502-3.654 1.551"/></mask><g mask="url(#d)"><path fill="url(#e)" d="M66.478 13.383H27.434v44.02h39.044z"/></g><mask id="f" width="185" height="44" x="27" y="13" maskUnits="userSpaceOnUse" style="mask-type:luminance"><path fill="#fff" d="M211.053 13.383H27.433v43.463h183.62z"/></mask><g mask="url(#f)"><path fill="#0056b3" fill-rule="evenodd" d="M27.434 35.11v6.99c0 4.224.077 4.173 3.598 6.161l12.21 7.027c3.522 2.016 3.522 2.113 7.198 0l-3.594-9.046-9.708-5.578v-11.14z" clip-rule="evenodd"/><g opacity=".3"><mask id="g" width="40" height="44" x="27" y="13" maskUnits="userSpaceOnUse" style="mask-type:luminance"><path fill="#fff" d="M66.283 13.387h-38.85v43.457h38.85z"/></mask><g mask="url(#g)"><path fill="#0088fb" fill-rule="evenodd" d="M65.762 24.27c-.73-1.2-1.953-1.66-3.124-2.346l-12.2-6.996c-3.515-2.015-3.522-2.105-7.198 0l-6.104 3.5 19.416 11.098v11.148l-9.708 5.561-9.703-5.561V29.526l-9.707 5.59v6.997c0 4.21.071 4.172 3.591 6.185l12.218 6.997c3.52 2.015 3.52 2.112 7.197 0L62.654 48.3c3.52-2.011 3.592-1.976 3.592-6.184V28.11c.006-1.37.233-2.623-.481-3.837" clip-rule="evenodd"/></g></g><path fill="#0064c8" fill-rule="evenodd" d="m37.145 40.673 9.702-5.562V23.988l-9.702 5.562z" clip-rule="evenodd"/><path fill="#0064c8" fill-rule="evenodd" d="M46.844 35.111V23.988l9.708 5.562v11.123z" clip-rule="evenodd"/></g></g></g><defs><linearGradient id="e" x1="-148.774" x2="-148.11" y1="-92.179" y2="-92.179" gradientUnits="userSpaceOnUse"><stop stop-color="#0056b3"/><stop offset=".25" stop-color="#0056b3"/><stop offset=".7" stop-color="#0088fb"/><stop offset="1" stop-color="#00acff"/></linearGradient></defs></svg>
